icons/creative-commons-nc-line.svg

<svg xmlns="http://www.w3.org/2000/svg" width="24" height="24" fill="none"><g clip-path="url(#a)"><g><path fill="#121212" d="M12 2C17.523 2 22 6.477 22 12C22 14.4 21.154 16.604 19.744 18.328L19.778 18.364L18.364 19.778L18.328 19.744C16.5436 21.2062 14.307 22.0036 12 22C6.477 22 2 17.523 2 12C2 6.477 6.477 2 12 2ZM4 12C3.99998 13.4969 4.41995 14.9638 5.21217 16.2339C6.00438 17.5041 7.13706 18.5264 8.48143 19.1848C9.82579 19.8432 11.3279 20.1112 12.817 19.9583C14.3061 19.8054 15.7225 19.2378 16.905 18.32L14.53 15.944C14.3558 15.9814 14.1782 16.0002 14 16H13V18H11V16H8.5V14H14C14.1249 14.0002 14.2455 13.9537 14.3378 13.8695C14.4301 13.7853 14.4876 13.6696 14.4989 13.5452C14.5102 13.4207 14.4745 13.2966 14.3988 13.1972C14.3231 13.0977 14.2129 13.0303 14.09 13.008L14 13H10C9.56116 13 9.13006 12.8845 8.75002 12.665C8.36998 12.4456 8.0544 12.13 7.83498 11.75C7.61557 11.3699 7.50006 10.9388 7.50006 10.5C7.50007 10.0611 7.61558 9.63004 7.835 9.25L5.679 7.094C4.58778 8.49628 3.99678 10.2232 4 12ZM12 4C10.152 4 8.45 4.627 7.095 5.68L9.47 8.055C9.64422 8.01791 9.82188 7.99948 10 8H11V6H13V8H15.5V10H10C9.87505 9.99977 9.75455 10.0463 9.66222 10.1305C9.56988 10.2147 9.51241 10.3304 9.50112 10.4548C9.48983 10.5793 9.52554 10.7034 9.60122 10.8028C9.6769 10.9023 9.78705 10.9697 9.91 10.992L10 11H14C14.4388 11 14.8699 11.1155 15.25 11.335C15.63 11.5544 15.9456 11.87 16.165 12.25C16.3844 12.6301 16.4999 13.0612 16.4999 13.5C16.4999 13.9389 16.3844 14.37 16.165 14.75L18.321 16.905C19.2389 15.7224 19.8065 14.306 19.9593 12.8168C20.1121 11.3276 19.8441 9.82538 19.1856 8.48098C18.5271 7.13658 17.5046 6.00391 16.2343 5.21177C14.964 4.41963 13.497 3.99979 12 4Z"/></g></g><defs><clipPath id="a"><rect width="24" height="24" fill="white"/></clipPath></defs></svg>

<svg width="24" height="24" fill="none" xmlns="http://www.w3.org/2000/svg"><g clip-path="url(#a)"><path d="M12 2c5.523 0 10 4.477 10 10 0 2.4-.846 4.604-2.256 6.328l.034.036-1.414 1.414-.036-.034A9.96 9.96 0 0 1 12 22C6.477 22 2 17.523 2 12S6.477 2 12 2ZM4 12a8 8 0 0 0 12.905 6.32l-2.375-2.376A2.511 2.511 0 0 1 14 16h-1v2h-2v-2H8.5v-2H14a.5.5 0 0 0 .09-.992L14 13h-4a2.5 2.5 0 0 1-2.165-3.75L5.679 7.094A7.965 7.965 0 0 0 4 12Zm8-8c-1.848 0-3.55.627-4.905 1.68L9.47 8.055A2.51 2.51 0 0 1 10 8h1V6h2v2h2.5v2H10a.5.5 0 0 0-.09.992L10 11h4a2.5 2.5 0 0 1 2.165 3.75l2.156 2.155A8 8 0 0 0 12 4Z" /></g><defs><clipPath id="a"><path fill="#fff" d="M0 0h24v24H0z"/></clipPath></defs></svg>
